; generated by PrusaSlicer 2.9.0 on 2025-01-15 at 14:52:40 UTC


;
;
; 

; external perimeters extrusion width = 0.45mm
; perimeters extrusion width = 0.45mm
; infill extrusion width = 0.45mm
; solid infill extrusion width = 0.45mm
; top infill extrusion width = 0.40mm
; support material extrusion width = 0.35mm
; first layer extrusion width = 0.42mm

; external perimeters extrusion width = 0.45mm
; perimeters extrusion width = 0.45mm
; infill extrusion width = 0.45mm
; solid infill extrusion width = 0.45mm
; top infill extrusion width = 0.40mm
; support material extrusion width = 0.35mm
; first layer extrusion width = 0.42mm

M73 P0 R65
M73 Q0 S66
M201 X1000 Y1000 Z200 E5000 ; sets maximum accelerations, mm/sec^2
M203 X200 Y200 Z12 E120 ; sets maximum feedrates, mm / sec
M204 S1250 T1250 ; sets acceleration (S) and retract acceleration (R), mm/sec^2
M205 X8.00 Y8.00 Z0.40 E4.50 ; sets the jerk limits, mm/sec
M205 S0 T0 ; sets the minimum extruding and travel feed rate, mm/sec

; printing object openglass_case.stl_2 id:1 copy 0
; stop printing object openglass_case.stl_2 id:1 copy 0
; printing object openglass_case.stl_1 id:0 copy 0
; stop printing object openglass_case.stl_1 id:0 copy 0

;TYPE:Custom
M862.3 P "MK3S" ; printer model check
M862.1 P0.4 ; nozzle diameter check
M115 U3.14.0 ; tell printer latest fw version
G90 ; use absolute coordinates
M83 ; extruder relative mode
M104 S215 ; set extruder temp
M140 S60 ; set bed temp
M190 S60 ; wait for bed temp
M109 S215 ; wait for extruder temp
G28 W ; home all without mesh bed level
G80 X98.496 Y61.9734 W51.3906 H88.6113 ; mesh bed levelling

G1 Z0.2 F720
G1 Y-3 F1000 ; go outside print area
G92 E0
G1 X60 E9 F1000 ; intro line
G1 X100 E12.5 F1000 ; intro line

G92 E0
M221 S95

; Don't change E values below. Excessive value can damage the printer.

M907 E538 ; set extruder motor current
G21 ; set units to millimeters
G90 ; use absolute coordinates
M83 ; use relative distances for extrusion

M900 K0.05 ; Filament gcode LA 1.5
M900 K30 ; Filament gcode LA 1.0




M107
;LAYER_CHANGE
;Z:0.2
;HEIGHT:0.2
G1 E-.8 F2100
G1 Z.6 F720
G1 X102.099 Y71.451 F10800
G1 Z.2 F720
G1 E.8 F2100
M204 S800
;TYPE:Skirt/Brim
;WIDTH:0.42
G1 F1200
G1 X102.641 Y71.006 E.02199
G1 X117.037 Y62.468 E.52479
G1 X118.169 Y62.162 E.03677
M73 Q0 S65
G1 X139.314 Y62.319 E.663
G1 X141.354 Y62.452 E.0641
M73 P0 R64
G1 X142.998 Y62.869 E.05318
G1 X144.658 Y63.669 E.05778
G1 X146.221 Y64.806 E.0606
G1 X146.949 Y65.502 E.03158
G1 X147.755 Y66.462 E.0393
G1 X148.421 Y67.489 E.03838
G1 X149.497 Y70.009 E.08591
G1 X149.648 Y70.749 E.02368
G1 X149.698 Y72.601 E.05809
G1 X149.648 Y88.832 E.50891
G1 X149.044 Y139.286 E1.58206
G1 X148.693 Y141.835 E.08068
G1 X148.184 Y143.407 E.05181
G1 X147.164 Y145.344 E.06864
G1 X146.34 Y146.412 E.04229
G1 X145.421 Y147.417 E.0427
G1 X144.094 Y148.483 E.05337
G1 X141.993 Y149.949 E.08033
G1 X140.786 Y150.34 E.03978
G1 X137.896 Y150.396 E.09063
G1 X109.327 Y150.376 E.89576
G1 X108.354 Y150.277 E.03067
G1 X106.186 Y149.747 E.06998
G1 X104.855 Y149.159 E.04562
G1 X103.251 Y148.135 E.05967
G1 X102.171 Y147.17 E.04541
G1 X101.171 Y146.063 E.04677
G1 X100.137 Y144.48 E.05928
G1 X99.548 Y143.193 E.04438
G1 X98.979 Y141.281 E.06255
G1 X98.747 Y139.559 E.05448
G1 X98.688 Y122.222 E.54359
G1 X101.461 Y72.876 E1.54965
G1 X102.074 Y71.506 E.04706
M204 S1000
;WIPE_START
G1 F8640
G1 X102.099 Y71.451 E-.01395
G1 X102.641 Y71.006 E-.16193
G1 X104.966 Y69.627 E-.62412
;WIPE_END
G1 Z.6 F720
G1 X108.796 Y114.625 F10800
G1 Z.2 F720
G1 E.8 F2100
M204 S800
G1 F1200
G1 X110.324 Y114.472 E.04815
G1 X137.784 Y114.436 E.86099
G1 X138.757 Y114.49 E.03055
G1 X140.25 Y114.824 E.04797
G1 X141.54 Y115.321 E.04335
G1 X142.815 Y116.059 E.04619
G1 X144.166 Y117.229 E.05604
G1 X145.205 Y118.582 E.05349
G1 X145.842 Y119.817 E.04357
G1 X146.288 Y121.16 E.04437
G1 X146.499 Y122.348 E.03783
G1 X146.59 Y123.489 E.03589
G1 X146.544 Y139.583 E.50462
G1 X146.238 Y141.451 E.05935
G1 X145.805 Y142.673 E.04065
G1 X145.001 Y144.122 E.05196
G1 X143.803 Y145.536 E.05811
G1 X142.579 Y146.521 E.04926
G1 X141.193 Y147.246 E.04904
G1 X139.663 Y147.72 E.05022
G1 X138.043 Y147.913 E.05115
G1 X109.351 Y147.899 E.89962
G1 X107.612 Y147.599 E.05533
G1 X106.089 Y147.007 E.05123
G1 X104.605 Y146.048 E.0554
G1 X103.358 Y144.831 E.05463
G1 X102.497 Y143.618 E.04664
G1 X101.887 Y142.376 E.04339
G1 X101.44 Y140.943 E.04707
G1 X101.226 Y139.487 E.04614
G1 X101.183 Y123.767 E.49289
G1 X101.554 Y121.302 E.07816
G1 X102.248 Y119.434 E.06248
G1 X102.796 Y118.495 E.03409
G1 X103.483 Y117.581 E.03585
G1 X104.707 Y116.425 E.05279
G1 X106.124 Y115.531 E.05253
G1 X107.313 Y115.016 E.04063
G1 X108.738 Y114.64 E.04621
M204 S1000
G1 X108.738 Y114.64 F10800
G1 X108.834 Y115.005
M204 S800
G1 F1200
G1 X108.877 Y114.993 E.0014
G1 X110.352 Y114.848 E.04647
G1 X136.728 Y114.802 E.827
G1 X138.72 Y114.866 E.06249
G1 X140.153 Y115.189 E.04606
G1 X141.364 Y115.655 E.04068
G1 X142.61 Y116.376 E.04514
G1 X143.903 Y117.5 E.05372
G1 X144.895 Y118.797 E.0512
G1 X145.489 Y119.95 E.04067
G1 X145.919 Y121.239 E.04261
G1 X146.126 Y122.405 E.03713
G1 X146.213 Y123.497 E.03435
G1 X146.17 Y139.536 E.50289
G1 X145.869 Y141.373 E.05837
G1 X145.465 Y142.51 E.03783
G1 X144.684 Y143.917 E.05046
G1 X143.552 Y145.254 E.05493
G1 X142.387 Y146.195 E.04696
G1 X141.034 Y146.904 E.04789
G1 X139.569 Y147.355 E.04806
G1 X138.01 Y147.537 E.04921
G1 X109.367 Y147.522 E.89808
G1 X107.696 Y147.231 E.05318
G1 X106.245 Y146.663 E.04886
G1 X104.827 Y145.742 E.05302
G1 X103.635 Y144.574 E.05233
G1 X102.814 Y143.413 E.04458
G1 X102.232 Y142.224 E.04151
G1 X101.805 Y140.845 E.04526
G1 X101.6 Y139.444 E.0444
G1 X101.56 Y123.786 E.49095
G1 X101.923 Y121.382 E.07623
G1 X102.582 Y119.609 E.05931
G1 X103.104 Y118.713 E.03251
G1 X103.775 Y117.82 E.03502
G1 X104.951 Y116.713 E.05064
G1 X106.312 Y115.858 E.0504
G1 X107.449 Y115.368 E.03882
G1 X108.776 Y115.02 E.04301
M204 S1000
G1 X108.776 Y115.02 F10800
G1 X108.871 Y115.385
M204 S800
G1 F1200
G1 X108.958 Y115.362 E.00282
G1 X110.379 Y115.224 E.04476
G1 X137.767 Y115.19 E.85873
G1 X138.683 Y115.241 E.02877
G1 X140.056 Y115.553 E.04415
G1 X141.188 Y115.989 E.03803
G1 X142.406 Y116.693 E.04411
G1 X143.641 Y117.772 E.05142
G1 X144.585 Y119.012 E.04886
G1 X145.136 Y120.084 E.03779
G1 X145.55 Y121.319 E.04084
G1 X145.754 Y122.462 E.0364
G1 X145.836 Y123.505 E.0328
G1 X145.795 Y139.489 E.50117
G1 X145.5 Y141.295 E.05738
G1 X145.125 Y142.347 E.03502
G1 X144.367 Y143.712 E.04895
G1 X143.301 Y144.972 E.05175
G1 X142.195 Y145.871 E.04469
G1 X140.906 Y146.549 E.04567
G1 X139.475 Y146.989 E.04694
G1 X137.978 Y147.161 E.04725
G1 X109.384 Y147.145 E.89654
G1 X107.78 Y146.863 E.05106
M73 P1 R64
M73 Q1 S65
G1 X106.401 Y146.32 E.04647
G1 X105.049 Y145.437 E.05063
G1 X103.912 Y144.318 E.05002
G1 X103.131 Y143.209 E.04253
G1 X102.578 Y142.072 E.03964
G1 X102.17 Y140.749 E.04341
G1 X101.975 Y139.4 E.04274
G1 X101.937 Y123.806 E.48894
G1 X102.292 Y121.463 E.0743
G1 X102.916 Y119.785 E.05613
G1 X103.412 Y118.931 E.03097
G1 X104.066 Y118.06 E.03415
G1 X105.196 Y117 E.04858
G1 X106.5 Y116.186 E.0482
G1 X107.584 Y115.72 E.037
G1 X108.813 Y115.4 E.03982
M204 S1000
G1 X108.813 Y115.4 F10800
G1 X108.907 Y115.764
M204 S800
G1 F1200
G1 X109.037 Y115.731 E.00421
G1 X110.406 Y115.6 E.04312
G1 X136.722 Y115.556 E.82512
G1 X138.646 Y115.617 E.06036
G1 X139.959 Y115.918 E.04224
G1 X141.012 Y116.323 E.03537
G1 X142.201 Y117.01 E.04306
G1 X143.378 Y118.042 E.04908
G1 X144.275 Y119.227 E.0466
G1 X144.783 Y120.217 E.03489
G1 X145.181 Y121.399 E.03911
G1 X145.381 Y122.519 E.03567
G1 X145.459 Y123.512 E.03123
G1 X145.421 Y139.442 E.49948
G1 X145.13 Y141.217 E.0564
G1 X144.784 Y142.184 E.0322
G1 X144.05 Y143.507 E.04744
G1 X143.049 Y144.691 E.04861
G1 X141.972 Y145.566 E.04351
G1 X140.747 Y146.206 E.04334
G1 X139.382 Y146.623 E.04475
G1 X137.946 Y146.785 E.04531
G1 X109.401 Y146.768 E.89501
G1 X107.865 Y146.495 E.04891
G1 X106.558 Y145.977 E.04408
G1 X105.272 Y145.132 E.04825
G1 X104.189 Y144.062 E.04773
G1 X103.448 Y143.005 E.04047
G1 X102.924 Y141.921 E.03775
G1 X102.535 Y140.652 E.04162
G1 X102.35 Y139.358 E.04099
G1 X102.314 Y123.827 E.48696
G1 X102.661 Y121.544 E.0724
G1 X103.251 Y119.96 E.053
G1 X103.72 Y119.148 E.0294
G1 X104.358 Y118.3 E.03327
G1 X105.439 Y117.289 E.04641
G1 X106.686 Y116.514 E.04603
G1 X107.719 Y116.072 E.03523
G1 X108.849 Y115.78 E.03659
M204 S1000
G1 X108.849 Y115.78 F10800
G1 X108.943 Y116.144
M204 S800
G1 F1200
G1 X109.117 Y116.1 E.00563
G1 X110.432 Y115.977 E.04141
G1 X137.75 Y115.944 E.85654
G1 X138.609 Y115.992 E.02698
G1 X139.861 Y116.282 E.04029
G1 X140.836 Y116.657 E.03275
G1 X141.995 Y117.327 E.04197
G1 X143.114 Y118.312 E.04674
G1 X143.963 Y119.44 E.04427
G1 X144.431 Y120.352 E.03214
G1 X144.813 Y121.479 E.03731
G1 X145.008 Y122.576 E.03493
G1 X145.082 Y123.52 E.02969
G1 X145.047 Y139.396 E.49778
G1 X144.761 Y141.139 E.05538
G1 X144.444 Y142.021 E.02939
G1 X143.733 Y143.302 E.04594
G1 X142.797 Y144.41 E.04548
G1 X141.779 Y145.241 E.0412
G1 X140.619 Y145.851 E.04109
G1 X139.322 Y146.251 E.04256
G1 X137.915 Y146.409 E.04439
G1 X109.418 Y146.391 E.8935
G1 X107.951 Y146.128 E.04673
G1 X106.717 Y145.634 E.04168
G1 X105.495 Y144.828 E.0459
G1 X104.467 Y143.807 E.04543
G1 X103.767 Y142.802 E.0384
G1 X103.27 Y141.771 E.03589
G1 X102.9 Y140.557 E.03979
G1 X102.725 Y139.315 E.03933
G1 X102.691 Y123.848 E.48496
G1 X103.03 Y121.624 E.07054
G1 X103.585 Y120.134 E.04985
G1 X104.029 Y119.365 E.02784
G1 X104.649 Y118.54 E.03236
G1 X105.683 Y117.578 E.04428
G1 X106.872 Y116.842 E.04384
G1 X107.853 Y116.425 E.03342
G1 X108.885 Y116.159 E.03342
M204 S1000
G1 X108.885 Y116.159 F10800
G1 X108.979 Y116.524
M204 S800
G1 F1200
G1 X109.195 Y116.469 E.00699
G1 X110.458 Y116.353 E.03977
G1 X136.717 Y116.31 E.82333
G1 X138.571 Y116.368 E.05816
G1 X139.763 Y116.647 E.03838
G1 X140.661 Y116.991 E.03015
G1 X141.79 Y117.644 E.04089
G1 X142.849 Y118.581 E.04434
G1 X143.652 Y119.653 E.042
G1 X144.078 Y120.486 E.02934
G1 X144.444 Y121.56 E.03558
G1 X144.705 Y123.527 E.06221
G1 X144.672 Y139.349 E.49609
G1 X144.392 Y141.061 E.05439
G1 X144.104 Y141.858 E.02657
G1 X143.417 Y143.097 E.04442
G1 X142.545 Y144.129 E.04236
G1 X141.556 Y144.937 E.04004
G1 X140.461 Y145.509 E.03874
G1 X139.229 Y145.885 E.04039
G1 X137.884 Y146.033 E.04243
G1 X109.436 Y146.014 E.89197
G1 X108.038 Y145.76 E.04455
G1 X106.876 Y145.291 E.03929
G1 X105.72 Y144.525 E.04348
G1 X104.746 Y143.552 E.04317
G1 X104.085 Y142.6 E.03634
G1 X103.626 Y141.647 E.03317
G1 X103.271 Y140.489 E.03798
G1 X103.1 Y139.273 E.0385
G1 X103.068 Y123.87 E.48295
G1 X103.398 Y121.705 E.06867
G1 X103.92 Y120.309 E.04673
G1 X104.337 Y119.582 E.02628
G1 X104.94 Y118.78 E.03146
G1 X105.925 Y117.867 E.04211
G1 X107.057 Y117.171 E.04167
G1 X107.987 Y116.778 E.03166
G1 X108.92 Y116.539 E.0302
M204 S1000
G1 X108.92 Y116.539 F10800
G1 X109.014 Y116.904
M204 S800
G1 F1200
G1 X109.274 Y116.838 E.00841
G1 X110.483 Y116.729 E.03806
G1 X137.734 Y116.698 E.85444
G1 X138.533 Y116.743 E.02509
G1 X139.663 Y117.011 E.03641
G1 X140.485 Y117.324 E.02758
G1 X141.584 Y117.961 E.03983
G1 X142.584 Y118.85 E.04195
G1 X143.34 Y119.865 E.03968
G1 X143.726 Y120.621 E.02661
G1 X144.075 Y121.64 E.03377
G1 X144.262 Y122.69 E.03344
G1 X144.328 Y123.535 E.02658
G1 X144.295 Y139.331 E.49527
G1 X144.022 Y140.982 E.05247
G1 X143.456 Y142.285 E.04454
G1 X143.1 Y142.892 E.02206
G1 X142.293 Y143.848 E.03923
G1 X141.333 Y144.632 E.03886
G1 X140.303 Y145.166 E.03638
G1 X139.17 Y145.512 E.03714
G1 X137.853 Y145.658 E.04155
G1 X109.453 Y145.637 E.89046
G1 X108.125 Y145.393 E.04234
G1 X107.068 Y144.966 E.03574
G1 X105.973 Y144.244 E.04112
G1 X105.025 Y143.298 E.04199
G1 X104.404 Y142.398 E.03428
G1 X103.982 Y141.522 E.03049
G1 X103.636 Y140.393 E.03702
G1 X103.474 Y139.232 E.03676
G1 X103.445 Y123.893 E.48094
G1 X103.767 Y121.786 E.06683
G1 X104.255 Y120.483 E.04363
G1 X104.646 Y119.8 E.02468
G1 X105.231 Y119.021 E.03055
M73 Q1 S64
G1 X106.167 Y118.157 E.03994
G1 X107.241 Y117.5 E.03948
G1 X108.094 Y117.14 E.02903
G1 X108.956 Y116.919 E.0279
M204 S1000
G1 X108.956 Y116.919 F10800
G1 X109.049 Y117.283
M204 S800
G1 F1200
G1 X109.323 Y117.212 E.00887
G1 X110.508 Y117.106 E.0373
G1 X136.711 Y117.064 E.82158
M73 P1 R63
G1 X138.494 Y117.119 E.05593
G1 X139.564 Y117.374 E.03449
G1 X140.309 Y117.658 E.025
G1 X141.378 Y118.277 E.03873
G1 X142.317 Y119.118 E.03952
G1 X143.027 Y120.077 E.03741
G1 X143.374 Y120.757 E.02394
G1 X143.707 Y121.721 E.03198
G1 X143.95 Y123.542 E.0576
G1 X143.918 Y139.312 E.49446
G1 X143.653 Y140.903 E.05057
G1 X143.424 Y141.531 E.02096
G1 X142.783 Y142.687 E.04144
G1 X142.041 Y143.567 E.03609
G1 X141.109 Y144.328 E.03773
G1 X140.175 Y144.81 E.03295
G1 X139.11 Y145.139 E.03495
G1 X137.822 Y145.282 E.04063
G1 X109.471 Y145.26 E.88893
G1 X108.213 Y145.026 E.04012
G1 X107.228 Y144.624 E.03336
G1 X106.197 Y143.941 E.03878
G1 X105.304 Y143.044 E.03969
G1 X104.723 Y142.197 E.0322
G1 X104.338 Y141.397 E.02784
G1 X104.007 Y140.326 E.03515
G1 X103.851 Y139.21 E.03533
G1 X103.822 Y123.917 E.4795
G1 X104.136 Y121.867 E.06503
G1 X104.59 Y120.656 E.04055
G1 X104.955 Y120.016 E.0231
G1 X105.522 Y119.261 E.0296
G1 X106.408 Y118.447 E.03772
G1 X107.425 Y117.83 E.0373
G1 X108.202 Y117.501 E.02646
G1 X108.991 Y117.298 E.02554
M204 S1000
G1 X108.991 Y117.298 F10800
G1 X109.086 Y117.661
M204 S800
G1 F1200
G1 X109.373 Y117.586 E.0093
G1 X110.534 Y117.482 E.03655
G1 X137.717 Y117.452 E.8523
G1 X138.455 Y117.494 E.02318
G1 X139.464 Y117.738 E.03255
G1 X140.134 Y117.993 E.02248
G1 X141.172 Y118.594 E.03761
G1 X142.05 Y119.385 E.03705
G1 X142.714 Y120.287 E.03512
G1 X143.022 Y120.893 E.02131
G1 X143.338 Y121.802 E.03017
G1 X143.516 Y122.803 E.03188
G1 X143.573 Y123.549 E.02346
G1 X143.541 Y139.294 E.49367
G1 X143.285 Y140.822 E.04858
G1 X142.797 Y141.919 E.03765
G1 X142.466 Y142.482 E.02048
G1 X141.789 Y143.286 E.03296
G1 X140.886 Y144.023 E.03655
G1 X140.047 Y144.455 E.02959
G1 X139.05 Y144.766 E.03275
G1 X137.811 Y144.904 E.03909
G1 X109.489 Y144.883 E.88802
G1 X108.302 Y144.659 E.03787
M73 P2 R63
G1 X107.42 Y144.3 E.02986
G1 X106.422 Y143.637 E.03757
G1 X105.585 Y142.791 E.03731
M73 Q2 S64
G1 X105.043 Y141.996 E.03017
G1 X104.694 Y141.272 E.0252
G1 X104.378 Y140.258 E.0333
G1 X104.228 Y139.188 E.03388
G1 X104.199 Y123.943 E.478
G1 X104.504 Y121.948 E.06328
G1 X104.925 Y120.83 E.03746
G1 X105.263 Y120.233 E.02151
G1 X105.813 Y119.502 E.02868
G1 X106.648 Y118.739 E.03546
G1 X107.608 Y118.16 E.03515
G1 X108.31 Y117.863 E.0239
G1 X109.028 Y117.676 E.02326
M204 S1000
G1 X109.028 Y117.676 F10800
G1 X109.123 Y118.039
M204 S800
G1 F1200
G1 X109.423 Y117.96 E.00973
G1 X110.542 Y117.859 E.03523
G1 X136.706 Y117.818 E.82035
G1 X138.416 Y117.87 E.05364
G1 X139.363 Y118.102 E.03057
G1 X139.958 Y118.327 E.01995
G1 X140.966 Y118.91 E.03651
G1 X141.782 Y119.65 E.03454
G1 X142.4 Y120.497 E.03287
G1 X142.97 Y121.883 E.04699
G1 X143.143 Y122.86 E.03111
G1 X143.204 Y127.461 E.14427
G1 X143.164 Y139.275 E.37042
G1 X142.916 Y140.74 E.04659
G1 X142.466 Y141.74 E.03438
G1 X142.149 Y142.277 E.01955
G1 X141.537 Y143.005 E.02982
G1 X140.663 Y143.718 E.03537
G1 X139.918 Y144.101 E.02626
G1 X138.99 Y144.394 E.03051
G1 X137.801 Y144.527 E.03751
G1 X109.507 Y144.506 E.88714
G1 X108.391 Y144.292 E.03563
G1 X107.612 Y143.975 E.02637
G1 X106.675 Y143.357 E.03519
G1 X105.886 Y142.564 E.03507
G1 X105.362 Y141.796 E.02915
G1 X105.05 Y141.147 E.02258
G1 X104.743 Y140.16 E.03241
G1 X104.604 Y139.167 E.03144
G1 X104.576 Y123.971 E.47646
G1 X104.873 Y122.029 E.0616
G1 X105.26 Y121.002 E.03441
G1 X106.104 Y119.743 E.04752
G1 X106.887 Y119.031 E.03318
G1 X107.79 Y118.49 E.03301
G1 X108.419 Y118.224 E.02141
G1 X109.065 Y118.054 E.02094
M204 S1000
G1 X109.065 Y118.054 F10800
G1 X109.162 Y118.417
M204 S800
G1 F1200
G1 X109.473 Y118.334 E.01009
G1 X110.551 Y118.236 E.03394
G1 X137.7 Y118.206 E.85124
G1 X138.377 Y118.245 E.02126
G1 X139.784 Y118.662 E.04601
G1 X140.729 Y119.204 E.03416
G1 X141.49 Y119.889 E.0321
G1 X142.072 Y120.682 E.03084
G1 X142.319 Y121.166 E.01704
G1 X142.608 Y121.993 E.02747
