; generated by PrusaSlicer 2.9.0 on 2025-02-19 at 13:37:02 UTC


;
;
; 

; external perimeters extrusion width = 0.60mm
; perimeters extrusion width = 0.50mm
; infill extrusion width = 0.50mm
; solid infill extrusion width = 0.50mm
; top infill extrusion width = 0.45mm
; support material extrusion width = 0.38mm
; first layer extrusion width = 0.42mm

; external perimeters extrusion width = 0.60mm
; perimeters extrusion width = 0.50mm
; infill extrusion width = 0.50mm
; solid infill extrusion width = 0.50mm
; top infill extrusion width = 0.45mm
; support material extrusion width = 0.38mm
; first layer extrusion width = 0.42mm

; external perimeters extrusion width = 0.60mm
; perimeters extrusion width = 0.50mm
; infill extrusion width = 0.50mm
; solid infill extrusion width = 0.50mm
; top infill extrusion width = 0.45mm
; support material extrusion width = 0.38mm
; first layer extrusion width = 0.42mm

M73 P0 R45
M73 Q0 S45
M201 X1000 Y1000 Z200 E5000 ; sets maximum accelerations, mm/sec^2
M203 X200 Y200 Z12 E120 ; sets maximum feedrates, mm / sec
M204 S1250 T1250 ; sets acceleration (S) and retract acceleration (R), mm/sec^2
M205 X8.00 Y8.00 Z0.40 E4.50 ; sets the jerk limits, mm/sec
M205 S0 T0 ; sets the minimum extruding and travel feed rate, mm/sec

; printing object tappo.stl id:2 copy 0
; stop printing object tappo.stl id:2 copy 0
; printing object base.stl id:0 copy 0
; stop printing object base.stl id:0 copy 0
; printing object gancio.stl id:1 copy 0
; stop printing object gancio.stl id:1 copy 0

;TYPE:Custom
M862.3 P "MK3S" ; printer model check
M862.1 P0.4 ; nozzle diameter check
M115 U3.14.0 ; tell printer latest fw version
G90 ; use absolute coordinates
M83 ; extruder relative mode
M104 S215 ; set extruder temp
M140 S60 ; set bed temp
M190 S60 ; wait for bed temp
M109 S215 ; wait for extruder temp
G28 W ; home all without mesh bed level
G80 X92.8355 Y89.7048 W69.5883 H67.3943 ; mesh bed levelling

G1 Z0.2 F720
G1 Y-3 F1000 ; go outside print area
G92 E0
G1 X60 E9 F1000 ; intro line
G1 X100 E12.5 F1000 ; intro line

G92 E0
M221 S95

; Don't change E values below. Excessive value can damage the printer.

M907 E538 ; set extruder motor current
G21 ; set units to millimeters
G90 ; use absolute coordinates
M83 ; use relative distances for extrusion

M900 K0.05 ; Filament gcode LA 1.5
M900 K30 ; Filament gcode LA 1.0




M107
;LAYER_CHANGE
;Z:0.2
;HEIGHT:0.2
G1 E-.8 F2100
G1 Z.6 F720
G1 X93.548 Y95.335 F10800
G1 Z.2 F720
G1 E.8 F2100
M204 S800
;TYPE:Skirt/Brim
;WIDTH:0.42
G1 F1200
G1 X93.999 Y94.892 E.01982
G1 X100.945 Y90.261 E.26175
G1 X102.159 Y89.893 E.03977
G1 X122.024 Y89.895 E.62285
G1 X159.35 Y91.179 E1.17102
G1 X160.311 Y91.426 E.03111
G1 X161.127 Y91.937 E.03019
G1 X161.758 Y92.675 E.03044
G1 X162.139 Y93.574 E.03061
G1 X162.235 Y94.353 E.02461
G1 X162.235 Y128.353 E1.06605
G1 X162.178 Y128.954 E.01893
G1 X162.026 Y129.488 E.01741
G1 X161.496 Y130.394 E.03291
G1 X140.124 Y156.121 E1.04868
G1 X138.441 Y156.911 E.05829
G1 X135.761 Y156.878 E.08404
G1 X124.695 Y154.96 E.35214
G1 X123.674 Y154.489 E.03525
G1 X93.817 Y129.766 E1.21543
G1 X93.024 Y128.08 E.05842
G1 X93.024 Y96.713 E.98349
G1 X93.415 Y95.465 E.04101
G1 X93.505 Y95.377 E.00395
M204 S1000
;WIPE_START
G1 F8640
G1 X93.548 Y95.335 E-.01388
G1 X93.999 Y94.892 E-.14597
G1 X96.306 Y93.354 E-.64015
;WIPE_END
G1 Z.6 F720
; printing object gancio.stl id:1 copy 0
G1 X138.441 Y141.299 F10800
G1 Z.2 F720
G1 E.8 F2100
M204 S800
;TYPE:Support material interface
;WIDTH:0.38
G1 F1200
G1 X138.441 Y140.828 E.0132
G1 X138.197 Y140.828 E.00684
G1 X138.197 Y154.722 E.38942
G1 X137.681 Y154.722 E.01446
G1 X137.681 Y140.828 E.38942
G1 X137.166 Y140.828 E.01443
G1 X137.166 Y154.722 E.38942
G1 X136.65 Y154.722 E.01446
G1 X136.65 Y153.209 E.04241
G1 X136.842 Y153.018 E.00759
G1 X136.842 Y142.533 E.29388
G1 X136.65 Y142.341 E.00761
G1 X136.65 Y140.828 E.04241
G1 X136.135 Y140.828 E.01443
G1 X136.135 Y142.229 E.03927
M204 S1000
;WIPE_START
G1 F8640
G1 X136.135 Y140.828 E-.32349
G1 X136.65 Y140.828 E-.11891
G1 X136.65 Y142.341 E-.34936
G1 X136.675 Y142.366 E-.00824
;WIPE_END
G1 Z.6 F720
G1 X136.539 Y153.321 F10800
G1 Z.2 F720
G1 E.8 F2100
M204 S800
G1 F1200
G1 X136.135 Y153.321 E.01132
G1 X136.135 Y154.722 E.03927
G1 X136.492 Y154.722 E.01001
M204 S1000
;WIPE_START
G1 F8640
G1 X136.135 Y154.722 E-.08243
G1 X136.135 Y153.321 E-.32349
G1 X136.539 Y153.321 E-.09328
;WIPE_END
G1 E-.3008 F2100
G1 Z.6 F720
G1 X134.899 Y152.016 F10800
G1 Z.2 F720
G1 E.8 F2100
M204 S800
;TYPE:Perimeter
;WIDTH:0.419999
G1 F1200
G1 X125.857 Y152.016 E.28351
G1 X125.857 Y143.534 E.26595
G1 X134.899 Y143.534 E.28351
G1 X134.899 Y147.775 E.13297
G1 X134.899 Y151.956 E.13109
M204 S1000
G1 X135.276 Y152.393 F10800
M204 S800
;TYPE:External perimeter
G1 F1200
G1 X125.479 Y152.393 E.30718
G1 X125.479 Y143.157 E.28959
G1 X135.276 Y143.157 E.30718
G1 X135.276 Y147.775 E.14479
M73 Q1 S45
G1 X135.276 Y152.333 E.14291
M73 P1 R45
M204 S1000
;WIPE_START
G1 F8640
G1 X135.276 Y152.393 E-.01385
G1 X131.871 Y152.393 E-.78615
;WIPE_END
G1 Z.6 F720
G1 X134.729 Y144.485 F10800
G1 Z.2 F720
G1 E.8 F2100
M204 S800
;TYPE:Solid infill
;WIDTH:0.428882
G1 F1200
G1 X134.118 Y143.874 E.02773
G1 X133.572 Y143.874 E.01752
G1 X134.56 Y144.861 E.04482
G1 X134.56 Y145.407 E.01752
G1 X133.026 Y143.874 E.0696
G1 X132.48 Y143.874 E.01752
G1 X134.56 Y145.953 E.09438
G1 X134.56 Y146.499 E.01752
G1 X131.934 Y143.874 E.11916
G1 X131.389 Y143.874 E.01749
G1 X134.56 Y147.045 E.14392
G1 X134.56 Y147.59 E.01749
G1 X130.843 Y143.874 E.16868
G1 X130.297 Y143.874 E.01752
M73 P1 R44
G1 X134.56 Y148.136 E.19346
G1 X134.56 Y148.682 E.01752
G1 X129.751 Y143.874 E.21824
G1 X129.205 Y143.874 E.01752
G1 X134.56 Y149.228 E.24302
G1 X134.56 Y149.774 E.01752
G1 X128.659 Y143.874 E.2678
G1 X128.114 Y143.874 E.01749
G1 X134.56 Y150.32 E.29256
G1 X134.56 Y150.865 E.01749
G1 X127.568 Y143.874 E.31732
G1 X127.022 Y143.874 E.01752
G1 X134.56 Y151.411 E.3421
G1 X134.56 Y151.677 E.00854
G1 X134.279 Y151.677 E.00902
G1 X126.476 Y143.874 E.35415
G1 X126.196 Y143.874 E.00899
G1 X126.196 Y144.139 E.0085
G1 X133.733 Y151.677 E.3421
G1 X133.188 Y151.677 E.01749
G1 X126.196 Y144.685 E.31734
G1 X126.196 Y145.231 E.01752
G1 X132.642 Y151.677 E.29256
G1 X132.096 Y151.677 E.01752
G1 X126.196 Y145.777 E.26778
G1 X126.196 Y146.323 E.01752
G1 X131.55 Y151.677 E.243
G1 X131.004 Y151.677 E.01752
G1 X126.196 Y146.868 E.21824
G1 X126.196 Y147.414 E.01752
G1 X130.458 Y151.677 E.19346
G1 X129.913 Y151.677 E.01749
G1 X126.196 Y147.96 E.1687
G1 X126.196 Y148.506 E.01752
G1 X129.367 Y151.677 E.14392
G1 X128.821 Y151.677 E.01752
G1 X126.196 Y149.052 E.11914
G1 X126.196 Y149.598 E.01752
G1 X128.275 Y151.677 E.09436
G1 X127.729 Y151.677 E.01752
G1 X126.196 Y150.143 E.0696
G1 X126.196 Y150.689 E.01752
G1 X127.183 Y151.677 E.04482
G1 X126.638 Y151.677 E.01749
G1 X126.026 Y151.065 E.02778
M204 S1000
;WIPE_START
G1 F8640
G1 X126.638 Y151.677 E-.19985
G1 X127.183 Y151.677 E-.12584
G1 X126.196 Y150.689 E-.32246
G1 X126.196 Y150.143 E-.12607
G1 X126.275 Y150.222 E-.02578
;WIPE_END
G1 Z.6 F720
; stop printing object gancio.stl id:1 copy 0
; printing object base.stl id:0 copy 0
G1 X117.317 Y135.027 F10800
G1 Z.2 F720
G1 E.8 F2100
M204 S800
;TYPE:Support material
;WIDTH:0.42
G1 F1200
G1 X106.791 Y135.027 E.33004
G1 X106.791 Y132.125 E.09099
G1 X117.317 Y132.125 E.33004
G1 X117.317 Y134.971 E.08923
M204 S1000
G1 X117.317 Y134.971 F10800
G1 X116.663 Y134.858
M204 S800
G1 F1200
G1 X116.663 Y132.464 E.07506
G1 X116.244 Y132.464 E.01314
G1 X116.244 Y134.688 E.06973
G1 X115.825 Y134.688 E.01314
G1 X115.825 Y132.464 E.06973
G1 X115.406 Y132.464 E.01314
G1 X115.406 Y134.688 E.06973
G1 X114.987 Y134.688 E.01314
G1 X114.987 Y132.464 E.06973
G1 X114.568 Y132.464 E.01314
G1 X114.568 Y134.688 E.06973
G1 X114.149 Y134.688 E.01314
G1 X114.149 Y132.464 E.06973
G1 X113.73 Y132.464 E.01314
G1 X113.73 Y134.688 E.06973
G1 X113.311 Y134.688 E.01314
G1 X113.311 Y132.464 E.06973
G1 X112.892 Y132.464 E.01314
G1 X112.892 Y134.688 E.06973
G1 X112.473 Y134.688 E.01314
G1 X112.473 Y132.464 E.06973
G1 X112.054 Y132.464 E.01314
G1 X112.054 Y134.688 E.06973
G1 X111.635 Y134.688 E.01314
G1 X111.635 Y132.464 E.06973
G1 X111.216 Y132.464 E.01314
G1 X111.216 Y134.688 E.06973
G1 X110.797 Y134.688 E.01314
G1 X110.797 Y132.464 E.06973
G1 X110.378 Y132.464 E.01314
G1 X110.378 Y134.688 E.06973
G1 X109.959 Y134.688 E.01314
G1 X109.959 Y132.464 E.06973
G1 X109.54 Y132.464 E.01314
G1 X109.54 Y134.688 E.06973
G1 X109.121 Y134.688 E.01314
G1 X109.121 Y132.464 E.06973
G1 X108.702 Y132.464 E.01314
G1 X108.702 Y134.688 E.06973
G1 X108.283 Y134.688 E.01314
G1 X108.283 Y132.464 E.06973
G1 X107.864 Y132.464 E.01314
G1 X107.864 Y134.688 E.06973
G1 X107.445 Y134.688 E.01314
G1 X107.445 Y132.294 E.07506
M204 S1000
;WIPE_START
G1 F8640
G1 X107.445 Y134.688 E-.55278
G1 X107.864 Y134.688 E-.09675
G1 X107.864 Y134.036 E-.15047
;WIPE_END
G1 Z.6 F720
G1 X99.484 Y128.08 F10800
G1 Z.2 F720
G1 E.8 F2100
M204 S800
G1 F1200
G1 X95.213 Y128.08 E.13391
G1 X95.213 Y96.713 E.98349
G1 X99.484 Y96.713 E.13391
G1 X99.484 Y128.024 E.98173
M204 S1000
G1 X99.484 Y128.024 F10800
G1 X99.066 Y127.911
M204 S800
G1 F1200
G1 X99.066 Y97.052 E.96756
G1 X98.647 Y97.052 E.01314
G1 X98.647 Y127.741 E.96223
G1 X98.228 Y127.741 E.01314
G1 X98.228 Y97.052 E.96223
G1 X97.809 Y97.052 E.01314
G1 X97.809 Y127.741 E.96223
G1 X97.39 Y127.741 E.01314
G1 X97.39 Y97.052 E.96223
G1 X96.971 Y97.052 E.01314
M73 P2 R44
M73 Q2 S44
G1 X96.971 Y127.741 E.96223
G1 X96.552 Y127.741 E.01314
G1 X96.552 Y97.052 E.96223
G1 X96.133 Y97.052 E.01314
G1 X96.133 Y127.741 E.96223
G1 X95.714 Y127.741 E.01314
G1 X95.714 Y96.883 E.96753
M204 S1000
;WIPE_START
G1 F8640
G1 X95.714 Y100.348 E-.8
;WIPE_END
G1 Z.6 F720
G1 X121.949 Y94.985 F10800
G1 Z.2 F720
G1 E.8 F2100
M204 S800
G1 F1200
G1 X102.159 Y94.985 E.6205
G1 X102.159 Y92.082 E.09102
G1 X121.949 Y92.082 E.6205
G1 X121.949 Y94.928 E.08923
M204 S1000
G1 X121.949 Y94.928 F10800
G1 X121.272 Y94.815
M204 S800
G1 F1200
G1 X121.272 Y92.421 E.07506
G1 X120.853 Y92.421 E.01314
G1 X120.853 Y94.645 E.06973
G1 X120.434 Y94.645 E.01314
G1 X120.434 Y92.421 E.06973
G1 X120.015 Y92.421 E.01314
G1 X120.015 Y94.645 E.06973
G1 X119.596 Y94.645 E.01314
G1 X119.596 Y92.421 E.06973
G1 X119.177 Y92.421 E.01314
G1 X119.177 Y94.645 E.06973
G1 X118.758 Y94.645 E.01314
G1 X118.758 Y92.421 E.06973
G1 X118.339 Y92.421 E.01314
G1 X118.339 Y94.645 E.06973
G1 X117.92 Y94.645 E.01314
G1 X117.92 Y92.421 E.06973
G1 X117.501 Y92.421 E.01314
G1 X117.501 Y94.645 E.06973
G1 X117.082 Y94.645 E.01314
G1 X117.082 Y92.421 E.06973
G1 X116.663 Y92.421 E.01314
G1 X116.663 Y94.645 E.06973
G1 X116.244 Y94.645 E.01314
G1 X116.244 Y92.421 E.06973
G1 X115.825 Y92.421 E.01314
G1 X115.825 Y94.645 E.06973
G1 X115.406 Y94.645 E.01314
G1 X115.406 Y92.421 E.06973
G1 X114.987 Y92.421 E.01314
G1 X114.987 Y94.645 E.06973
G1 X114.568 Y94.645 E.01314
G1 X114.568 Y92.421 E.06973
G1 X114.149 Y92.421 E.01314
G1 X114.149 Y94.645 E.06973
G1 X113.73 Y94.645 E.01314
G1 X113.73 Y92.421 E.06973
G1 X113.311 Y92.421 E.01314
G1 X113.311 Y94.645 E.06973
G1 X112.892 Y94.645 E.01314
G1 X112.892 Y92.421 E.06973
G1 X112.473 Y92.421 E.01314
G1 X112.473 Y94.645 E.06973
G1 X112.054 Y94.645 E.01314
G1 X112.054 Y92.421 E.06973
G1 X111.635 Y92.421 E.01314
G1 X111.635 Y94.645 E.06973
G1 X111.216 Y94.645 E.01314
G1 X111.216 Y92.421 E.06973
G1 X110.797 Y92.421 E.01314
G1 X110.797 Y94.645 E.06973
G1 X110.378 Y94.645 E.01314
G1 X110.378 Y92.421 E.06973
G1 X109.959 Y92.421 E.01314
G1 X109.959 Y94.645 E.06973
G1 X109.54 Y94.645 E.01314
G1 X109.54 Y92.421 E.06973
G1 X109.121 Y92.421 E.01314
G1 X109.121 Y94.645 E.06973
G1 X108.702 Y94.645 E.01314
G1 X108.702 Y92.421 E.06973
G1 X108.283 Y92.421 E.01314
G1 X108.283 Y94.645 E.06973
G1 X107.864 Y94.645 E.01314
G1 X107.864 Y92.421 E.06973
G1 X107.445 Y92.421 E.01314
G1 X107.445 Y94.645 E.06973
G1 X107.026 Y94.645 E.01314
G1 X107.026 Y92.421 E.06973
G1 X106.607 Y92.421 E.01314
G1 X106.607 Y94.645 E.06973
G1 X106.188 Y94.645 E.01314
G1 X106.188 Y92.421 E.06973
G1 X105.769 Y92.421 E.01314
G1 X105.769 Y94.645 E.06973
G1 X105.35 Y94.645 E.01314
G1 X105.35 Y92.421 E.06973
G1 X104.931 Y92.421 E.01314
G1 X104.931 Y94.645 E.06973
G1 X104.512 Y94.645 E.01314
G1 X104.512 Y92.421 E.06973
G1 X104.093 Y92.421 E.01314
G1 X104.093 Y94.645 E.06973
G1 X103.674 Y94.645 E.01314
G1 X103.674 Y92.421 E.06973
G1 X103.256 Y92.421 E.01311
G1 X103.256 Y94.645 E.06973
G1 X102.837 Y94.645 E.01314
G1 X102.837 Y92.252 E.07503
M204 S1000
;WIPE_START
G1 F8640
G1 X102.837 Y94.645 E-.55255
G1 X103.256 Y94.645 E-.09675
G1 X103.256 Y93.992 E-.1507
;WIPE_END
G1 Z.6 F720
G1 X128.895 Y132.712 F10800
G1 Z.2 F720
G1 E.8 F2100
M204 S800
G1 F1200
G1 X122.865 Y132.712 E.18907
G1 X122.741 Y132.125 E.01881
G1 X123.467 Y132.069 E.02283
G1 X124.059 Y131.761 E.02092
G1 X124.474 Y131.223 E.0213
G1 X124.624 Y130.558 E.02137
G1 X124.622 Y96.48 E1.06849
G1 X124.449 Y95.835 E.02094
G1 X124.014 Y95.313 E.0213
G1 X123.454 Y95.036 E.01959
G1 X122.741 Y94.985 E.02241
G1 X122.865 Y94.397 E.01884
G1 X128.895 Y94.397 E.18907
G1 X128.895 Y132.655 E1.19955
M204 S1000
G1 X128.895 Y132.655 F10800
G1 X128.394 Y132.542
M204 S800
G1 F1200
G1 X128.394 Y94.737 E1.18535
G1 X127.975 Y94.737 E.01314
G1 X127.975 Y132.372 E1.18002
G1 X127.556 Y132.372 E.01314
G1 X127.556 Y94.737 E1.18002
G1 X127.137 Y94.737 E.01314
M73 P3 R44
M73 Q3 S44
G1 X127.137 Y132.372 E1.18002
G1 X126.718 Y132.372 E.01314
G1 X126.718 Y94.737 E1.18002
G1 X126.299 Y94.737 E.01314
G1 X126.299 Y132.372 E1.18002
G1 X125.88 Y132.372 E.01314
G1 X125.88 Y94.737 E1.18002
G1 X125.461 Y94.737 E.01314
M73 P3 R43
G1 X125.461 Y132.372 E1.18002
G1 X125.042 Y132.372 E.01314
G1 X125.042 Y94.737 E1.18002
G1 X124.623 Y94.737 E.01314
G1 X124.623 Y95.467 E.02289
G1 X124.204 Y95.031 E.01896
G1 X124.204 Y94.737 E.00922
G1 X123.785 Y94.737 E.01314
G1 X123.785 Y94.976 E.00749
M204 S1000
;WIPE_START
G1 F8640
G1 X123.785 Y94.737 E-.05519
G1 X124.204 Y94.737 E-.09675
G1 X124.204 Y95.031 E-.06789
G1 X124.623 Y95.467 E-.13963
G1 X124.623 Y94.737 E-.16856
G1 X125.042 Y94.737 E-.09675
G1 X125.042 Y95.496 E-.17523
;WIPE_END
G1 Z.6 F720
G1 X124.623 Y132.542 F10800
G1 Z.2 F720
G1 E.8 F2100
M204 S800
G1 F1200
G1 X124.623 Y131.642 E.02822
G1 X124.204 Y132.078 E.01896
G1 X124.204 Y132.372 E.00922
G1 X123.785 Y132.372 E.01314
G1 X123.785 Y132.133 E.00749
M204 S1000
;WIPE_START
G1 F8640
G1 X123.785 Y132.372 E-.05519
G1 X124.204 Y132.372 E-.09675
G1 X124.204 Y132.078 E-.06789
G1 X124.623 Y131.642 E-.13963
G1 X124.623 Y132.542 E-.20781
;WIPE_END
G1 E-.23273 F2100
G1 Z.6 F720
G1 X100.869 Y96.514 F10800
G1 Z.2 F720
G1 E.8 F2100
M204 S800
;TYPE:Perimeter
;WIDTH:0.419999
G1 F1200
G1 X100.895 Y96.424 E.00294
G1 X101.125 Y96.342 E.00766
G1 X123.019 Y96.342 E.68647
G1 X123.203 Y96.418 E.00624
G1 X123.267 Y96.633 E.00703
G1 X123.267 Y130.498 E1.06181
G1 X123.213 Y130.685 E.0061
G1 X122.983 Y130.767 E.00766
G1 X101.111 Y130.767 E.68578
G1 X100.923 Y130.714 E.00612
G1 X100.841 Y130.483 E.00769
G1 X100.841 Y96.611 E1.06203
G1 X100.853 Y96.571 E.00131
M204 S1000
G1 X100.853 Y96.571 F10800
G1 X100.498 Y96.452
M204 S800
;TYPE:External perimeter
G1 F1200
G1 X100.559 Y96.237 E.00701
G1 X100.705 Y96.087 E.00656
G1 X101.08 Y95.965 E.01236
G1 X122.976 Y95.965 E.68653
G1 X123.302 Y96.023 E.01038
G1 X123.486 Y96.158 E.00716
G1 X123.605 Y96.355 E.00722
G1 X123.644 Y96.633 E.0088
G1 X123.644 Y130.539 E1.0631
G1 X123.549 Y130.872 E.01086
G1 X123.403 Y131.022 E.00656
G1 X123.028 Y131.145 E.01237
G1 X101.07 Y131.145 E.68848
G1 X100.736 Y131.049 E.0109
G1 X100.587 Y130.904 E.00652
G1 X100.464 Y130.529 E.01237
G1 X100.464 Y96.57 E1.06476
G1 X100.481 Y96.51 E.00196
M204 S1000
;WIPE_START
G1 F8640
G1 X100.498 Y96.452 E-.01396
G1 X100.559 Y96.237 E-.0516
G1 X100.705 Y96.087 E-.04833
G1 X101.08 Y95.965 E-.09106
G1 X103.657 Y95.965 E-.59505
;WIPE_END
G1 Z.6 F720
G1 X122.32 Y96.512 F10800
G1 Z.2 F720
G1 E.8 F2100
M204 S800
;TYPE:Solid infill
;WIDTH:0.421329
G1 F1200
G1 X122.916 Y97.108 E.02652
G1 X122.916 Y97.643 E.01683
G1 X121.955 Y96.682 E.04276
